icons/1_Primary/Saweria.svg

<svg width="1024" height="1024" fill="none" xmlns="http://www.w3.org/2000/svg"><g clip-path="url(#a)"><path d="M512 1024c282.77 0 512-229.23 512-512S794.77 0 512 0 0 229.23 0 512s229.23 512 512 512Z" fill="#F9DE81"/><path d="M346.61 726.33c-4.66-16.5.59-39.25 12.47-54.07 4-5 12.16-13.14 22.83-13.14h1.17c7.77.43 13.48 2.67 17 6.64 4.51 5.15 4.11 11.94 4.09 12.17a6.38 6.38 0 0 0 12.16 3.2c.08-.17 8.28-17.54 21-16.17 11.52 1.27 11.93 23.74 11.93 24a6.376 6.376 0 0 0 4.833 6.17 6.38 6.38 0 0 0 7.167-3.17c3.6-6.67 12.19-2.74 13.88-1.88 9.46 4.8 20.17 19 10.91 38.46-16.19 34-63.82 40-80.82 39.41-19.09-.62-50.9-14.3-58.62-41.62ZM641 653.69c-7.83.44-13.57 2.71-17 6.75-4.44 5.16-4 12-4 12a6.378 6.378 0 0 1-9.08 6.368 6.383 6.383 0 0 1-3.08-3.128c-.13-.27-8.27-17.58-21-16.19-11.43 1.28-11.94 23.73-11.94 24a6.376 6.376 0 0 1-4.833 6.17 6.38 6.38 0 0 1-7.167-3.17 7 7 0 0 0-6.58-3.78 17.609 17.609 0 0 0-7.3 1.94c-9.45 4.8-20.15 19-10.9 38.43 16.18 34 63.82 39.94 80.82 39.38 19.1-.64 50.93-14.31 58.6-41.63 4.64-16.52-.64-39.27-12.54-54.1-4.13-5.11-12.75-13.67-24-13.04ZM514.56 642h.26c12.46-.37 21.86-23.23 25.75-36.23-9.94-4.43-19.92-11.29-26-19.78-6.27 7.12-15.93 13.92-25.24 18.53C493.41 619.27 503 642 514.56 642Zm19.74-87.85c-.74-7.17-10.45-13-21.64-13-11.19 0-20.87 5.85-21.66 12.95 0 .34-.07.69-.07.91 0 6.48 7.57 12.33 17.61 13.6l1 .11c1.19.11 2.16.16 3.08.16a31.766 31.766 0 0 0 7.44-.88l.34-.09.2-.05c8.22-2.15 13.73-7.31 13.73-12.85 0-.18 0-.47-.06-.79l.03-.07Zm-84.9-44.26a75.81 75.81 0 0 0 5.24-13.51c7.85-27.87-1.21-55.81-20.51-68.87a17.146 17.146 0 0 0-2-.13c-15.35 0-27.8 20.72-27.8 46.28 0 25.56 12.45 46.28 27.8 46.28 6.52 0 12.52-3.77 17.27-10.05Zm317.52 85c-1.72 2.32-8.68 2.78-23.06-2.85a6.388 6.388 0 0 0-3.684-.295 6.385 6.385 0 0 0-4.506 8.755c.15.34 14.57 34.06 19.5 58.67a22.992 22.992 0 0 1-7 21.54c-21.44 19.23-41.57 31-56.46 33.08 1.66-18.58-4.58-39.91-16.72-55.05-9.79-12.2-22.1-18.54-34.64-17.84-11.43.64-20.18 4.39-26 11.16a27.9 27.9 0 0 0-3.65 5.41c-5.7-6.15-14.14-11.92-25.25-10.68-13.23 1.53-19.45 13.21-21.96 24.43-5.92-2.12-13.13-1.52-20.25 2.1-16.77 8.53-28.3 30.8-16.64 55.29.67 1.4 1.39 2.75 2.14 4.08l-31 .95c11.35-24.35-.14-46.44-16.83-54.91-7.13-3.62-14.34-4.21-20.26-2.07-2.48-11.18-8.74-22.89-21.93-24.34-11.11-1.24-19.55 4.54-25.26 10.68a27.805 27.805 0 0 0-3.65-5.42c-5.83-6.77-14.58-10.53-26-11.16-12.55-.69-24.87 5.65-34.66 17.86-11 13.66-17.09 32.37-17 49.55-15-2.12-35.08-13.84-56.32-33a22.999 22.999 0 0 1-7-21.6c4.94-24.5 19.35-58.32 19.5-58.66a6.378 6.378 0 0 0-4.511-8.742 6.37 6.37 0 0 0-3.679.292c-14.38 5.63-21.34 5.16-23.06 2.84-1.93-2.6-8.33-20.32 55-114.1 34-50.38 71.29-97.68 71.67-98.15a6.378 6.378 0 0 0-1.7-9.421 6.387 6.387 0 0 0-3.44-.919c-29.1.66-60.17-28.14-73.21-56.27-10.37-22.36-11.78-63.81 1.94-83.75 6-8.68 14.07-12.55 24.81-11.81 28.84 2 32.74 25.53 35.72 64.08.79 10.23 1.61 20.81 3.42 30.45 8.32 44.22 39.52 46.21 40.84 46.27a6.432 6.432 0 0 0 2.41-.35c98.09-34.32 193.69-.38 194.64 0 .796.291 1.643.42 2.49.38 1.32-.06 32.49-2.08 40.83-46.26 1.82-9.62 2.64-20.19 3.45-30.4 3-38.63 7-62.22 35.84-64.17 10.75-.72 18.89 3.16 24.88 11.89 13.72 20 12.3 61.41 1.93 83.71-13.09 28.13-44.09 56.85-73.22 56.27a6.387 6.387 0 0 0-5.852 3.539 6.38 6.38 0 0 0 .712 6.801c.37.47 37.66 47.77 71.66 98.16 63.35 93.72 56.95 111.43 55.02 114.03v-.05Zm-204-216.57a6.374 6.374 0 0 0 2.396 4.256 6.39 6.39 0 0 0 4.704 1.314c13.18-1.61 32.19 12.22 38.41 17.68a6.38 6.38 0 1 0 8.43-9.58c-2.72-2.4-27.18-23.32-48.38-20.77a6.373 6.373 0 0 0-4.271 2.411 6.379 6.379 0 0 0-1.299 4.729l.01-.04Zm-30.6 63.21a6.372 6.372 0 0 0 3.711 3.22 6.369 6.369 0 0 0 4.898-.372 6.385 6.385 0 0 0 3.462-6.233 6.4 6.4 0 0 0-.701-2.405C536.37 421.41 537 412 537 411.72a6.377 6.377 0 0 0-5.675-7.015 6.381 6.381 0 0 0-7.015 5.675c-.12 1.31-1.12 13.27 8.01 31.2v-.05Zm-26.91-1.44a6.38 6.38 0 1 0 12.76 0v-30.41a6.377 6.377 0 0 0-1.869-4.511 6.377 6.377 0 0 0-9.022 0 6.377 6.377 0 0 0-1.869 4.511v30.41Zm-22.68 4.23a6.38 6.38 0 0 0 8.58-2.79c9.13-17.93 8.13-29.89 8-31.19a6.334 6.334 0 0 0-7-5.61 6.412 6.412 0 0 0-5.73 6.94c0 .09.73 9.54-6.66 24.07a6.382 6.382 0 0 0 2.81 8.63v-.05Zm-88.33-39.61a6.38 6.38 0 0 0 9 .58c6.22-5.46 25.24-19.29 38.42-17.68a6.378 6.378 0 0 0 5.367-10.07 6.382 6.382 0 0 0-3.837-2.54c-21.15-2.55-45.66 18.37-48.38 20.77a6.382 6.382 0 0 0-.58 8.98l.01-.04Zm-74.54 238.6 12.38-25.09a10.212 10.212 0 0 0-4.464-14.044 10.214 10.214 0 0 0-13.846 5.044l-12.38 25.09a10.212 10.212 0 0 0 4.464 14.044 10.214 10.214 0 0 0 13.846-5.044Zm36.38-33.66a10.21 10.21 0 0 0-13.67 4.64l-12.38 25.09a10.204 10.204 0 0 0 1.314 11.455 10.198 10.198 0 0 0 7.137 3.506 10.213 10.213 0 0 0 9.869-5.961l12.38-25.09a10.21 10.21 0 0 0-4.64-13.64h-.01ZM434.52 546c15.47-10.45 27-26.83 32.41-46.12 11.33-40.21-7.55-80.84-42.07-90.56-34.52-9.72-71.86 15.04-83.15 55.25-5.43 19.29-4.17 39.27 3.57 56.26 7.9 17.36 21.57 29.54 38.5 34.3a56.868 56.868 0 0 0 15.46 2.14c12.09.01 24.23-3.83 35.28-11.27Zm166.36 29.18a6.392 6.392 0 0 0-7.51-5c-2.38.48-6.07-.43-9.92-1.9a68.384 68.384 0 0 1-11.63-5.87 6.383 6.383 0 0 0-6.91 10.73 82.62 82.62 0 0 0 9.52 5.2c-1.73 8.72-5.81 20.06-11.43 20.27a34.987 34.987 0 0 1-11.75-2.15 6.32 6.32 0 0 0-1.58-.62h-.28C537.7 591.37 525 582.43 522 573c10.34-2.7 17.73-9.74 17.73-18a13.963 13.963 0 0 0-.1-1.43c15.37-4.17 25.76-11.8 25.76-20.57 0-13.22-23.61-23.94-52.74-23.94-29.13 0-52.74 10.72-52.74 23.94 0 7.38 7.35 14 18.89 18.38 2.27.8 4.58 1.5 6.9 2.14-.064.494-.1.992-.11 1.49 0 9.46 9.62 17.3 22.28 18.9-3.4 6-16.65 16-27.71 20.9a6.3 6.3 0 0 0-1.57.66 25.793 25.793 0 0 1-8.76 2.18c-4.3 0-9.94-9.65-13.2-19.63a51.139 51.139 0 0 0 6.23-6.17 6.386 6.386 0 0 0 .858-7.055 6.384 6.384 0 0 0-6.202-3.472 6.38 6.38 0 0 0-4.356 2.237 34.592 34.592 0 0 1-7.6 6.77l-.2.13c-5.33 3.35-9.3 3.27-9.67 3.26a6.38 6.38 0 0 0-1.12 12.71c.21 0 .66.05 1.31.05a28.067 28.067 0 0 0 9.52-1.86c3.65 10.15 11.39 25.78 24.42 25.78h.18a29.814 29.814 0 0 0 7.34-1.22c4.16 14.55 15.57 45.54 37.17 45.54h.67c21.76-.64 33.28-30.79 37.46-44.78a42.202 42.202 0 0 0 9.86 1.37h.92c14.85-.55 20.87-18.28 23.15-28.88 1.801.367 3.632.561 5.47.58a19.433 19.433 0 0 0 3.82-.36 6.366 6.366 0 0 0 2.301-.951 6.363 6.363 0 0 0 2.717-4.059 6.382 6.382 0 0 0 .002-2.49v.03ZM676 517.76c7.72-16.94 9-36.87 3.58-56.11-5.42-19.24-16.89-35.59-32.31-46-15.76-10.66-33.73-13.91-50.61-9.17-16.88 4.74-30.52 16.89-38.41 34.21-7.72 16.94-9 36.87-3.58 56.11 9.63 34.24 38.13 57.29 67.69 57.28a56.132 56.132 0 0 0 15.23-2.1c16.91-4.76 30.56-16.91 38.41-34.22Zm16.37 125-18.25-37a10.2 10.2 0 0 0-5.848-5.474 10.209 10.209 0 0 0-12.462 14.474l18.25 37a10.208 10.208 0 0 0 18.561-1.386 10.208 10.208 0 0 0-.251-7.614Zm31-7-18.25-37a10.21 10.21 0 0 0-18.31 9l18.25 37a10.208 10.208 0 0 0 18.561-1.386 10.208 10.208 0 0 0-.251-7.614ZM591 427.37a19.004 19.004 0 0 0-11.56 4.19c-9.58 7.31-16.24 23.4-16.24 42.09 0 15.22 4.41 28.72 11.22 37.15 4.63 5.73 10.36 9.13 16.58 9.13 15.35 0 27.8-20.72 27.8-46.28 0-25.56-12.47-46.28-27.8-46.28Z" fill="#fff"/></g><defs><clipPath id="a"><path fill="#fff" d="M0 0h1024v1024H0z"/></clipPath></defs></svg>

<svg width="1024" height="1024" viewBox="0 0 1024 1024" fill="none" xmlns="http://www.w3.org/2000/svg">
<g clip-path="url(#clip0_2_3405)">
<path d="M512 1024C794.77 1024 1024 794.77 1024 512C1024 229.23 794.77 0 512 0C229.23 0 0 229.23 0 512C0 794.77 229.23 1024 512 1024Z" fill="#F9DE81"/>
<path d="M346.61 726.33C341.95 709.83 347.2 687.08 359.08 672.26C363.08 667.26 371.24 659.12 381.91 659.12H383.08C390.85 659.55 396.56 661.79 400.08 665.76C404.59 670.91 404.19 677.7 404.17 677.93C404.04 679.428 404.444 680.924 405.31 682.154C406.176 683.384 407.448 684.268 408.902 684.65C410.357 685.033 411.9 684.89 413.259 684.246C414.618 683.602 415.705 682.498 416.33 681.13C416.41 680.96 424.61 663.59 437.33 664.96C448.85 666.23 449.26 688.7 449.26 688.96C449.264 690.38 449.742 691.757 450.617 692.874C451.493 693.992 452.715 694.786 454.093 695.13C455.47 695.474 456.922 695.349 458.22 694.775C459.518 694.201 460.588 693.211 461.26 691.96C464.86 685.29 473.45 689.22 475.14 690.08C484.6 694.88 495.31 709.08 486.05 728.54C469.86 762.54 422.23 768.54 405.23 767.95C386.14 767.33 354.33 753.65 346.61 726.33ZM641 653.69C633.17 654.13 627.43 656.4 624 660.44C619.56 665.6 620 672.44 620 672.44C620.142 673.943 619.747 675.447 618.885 676.685C618.022 677.924 616.749 678.817 615.291 679.205C613.833 679.594 612.284 679.453 610.92 678.808C609.556 678.162 608.464 677.054 607.84 675.68C607.71 675.41 599.57 658.1 586.84 659.49C575.41 660.77 574.9 683.22 574.9 683.49C574.896 684.91 574.418 686.287 573.543 687.404C572.667 688.522 571.444 689.315 570.067 689.66C568.69 690.004 567.238 689.879 565.94 689.305C564.641 688.731 563.572 687.741 562.9 686.49C562.283 685.294 561.334 684.302 560.167 683.631C559 682.961 557.664 682.641 556.32 682.71C553.775 682.821 551.284 683.483 549.02 684.65C539.57 689.45 528.87 703.65 538.12 723.08C554.3 757.08 601.94 763.02 618.94 762.46C638.04 761.82 669.87 748.15 677.54 720.83C682.18 704.31 676.9 681.56 665 666.73C660.87 661.62 652.25 653.06 641 653.69ZM514.56 642H514.82C527.28 641.63 536.68 618.77 540.57 605.77C530.63 601.34 520.65 594.48 514.57 585.99C508.3 593.11 498.64 599.91 489.33 604.52C493.41 619.27 503 642 514.56 642ZM534.3 554.15C533.56 546.98 523.85 541.15 512.66 541.15C501.47 541.15 491.79 547 491 554.1C491 554.44 490.93 554.79 490.93 555.01C490.93 561.49 498.5 567.34 508.54 568.61L509.54 568.72C510.73 568.83 511.7 568.88 512.62 568.88C515.126 568.881 517.623 568.586 520.06 568L520.4 567.91L520.6 567.86C528.82 565.71 534.33 560.55 534.33 555.01C534.33 554.83 534.33 554.54 534.27 554.22L534.3 554.15ZM449.4 509.89C451.574 505.564 453.329 501.04 454.64 496.38C462.49 468.51 453.43 440.57 434.13 427.51C433.466 427.428 432.799 427.384 432.13 427.38C416.78 427.38 404.33 448.1 404.33 473.66C404.33 499.22 416.78 519.94 432.13 519.94C438.65 519.94 444.65 516.17 449.4 509.89ZM766.92 594.89C765.2 597.21 758.24 597.67 743.86 592.04C742.688 591.581 741.406 591.478 740.176 591.745C738.946 592.013 737.823 592.638 736.947 593.542C736.072 594.447 735.483 595.59 735.256 596.828C735.029 598.066 735.173 599.344 735.67 600.5C735.82 600.84 750.24 634.56 755.17 659.17C755.961 663.059 755.732 667.087 754.505 670.861C753.278 674.636 751.096 678.029 748.17 680.71C726.73 699.94 706.6 711.71 691.71 713.79C693.37 695.21 687.13 673.88 674.99 658.74C665.2 646.54 652.89 640.2 640.35 640.9C628.92 641.54 620.17 645.29 614.35 652.06C612.926 653.714 611.701 655.53 610.7 657.47C605 651.32 596.56 645.55 585.45 646.79C572.22 648.32 566 660 563.49 671.22C557.57 669.1 550.36 669.7 543.24 673.32C526.47 681.85 514.94 704.12 526.6 728.61C527.27 730.01 527.99 731.36 528.74 732.69L497.74 733.64C509.09 709.29 497.6 687.2 480.91 678.73C473.78 675.11 466.57 674.52 460.65 676.66C458.17 665.48 451.91 653.77 438.72 652.32C427.61 651.08 419.17 656.86 413.46 663C412.461 661.056 411.235 659.237 409.81 657.58C403.98 650.81 395.23 647.05 383.81 646.42C371.26 645.73 358.94 652.07 349.15 664.28C338.15 677.94 332.06 696.65 332.15 713.83C317.15 711.71 297.07 699.99 275.83 680.83C272.894 678.143 270.706 674.74 269.479 670.954C268.252 667.168 268.028 663.128 268.83 659.23C273.77 634.73 288.18 600.91 288.33 600.57C288.824 599.414 288.966 598.138 288.737 596.902C288.509 595.666 287.92 594.524 287.045 593.622C286.17 592.719 285.048 592.095 283.819 591.828C282.591 591.56 281.311 591.662 280.14 592.12C265.76 597.75 258.8 597.28 257.08 594.96C255.15 592.36 248.75 574.64 312.08 480.86C346.08 430.48 383.37 383.18 383.75 382.71C384.502 381.761 384.968 380.617 385.094 379.413C385.22 378.208 385.001 376.993 384.462 375.909C383.923 374.824 383.086 373.916 382.05 373.289C381.014 372.663 379.821 372.344 378.61 372.37C349.51 373.03 318.44 344.23 305.4 316.1C295.03 293.74 293.62 252.29 307.34 232.35C313.34 223.67 321.41 219.8 332.15 220.54C360.99 222.54 364.89 246.07 367.87 284.62C368.66 294.85 369.48 305.43 371.29 315.07C379.61 359.29 410.81 361.28 412.13 361.34C412.948 361.378 413.766 361.259 414.54 360.99C512.63 326.67 608.23 360.61 609.18 360.99C609.976 361.281 610.823 361.41 611.67 361.37C612.99 361.31 644.16 359.29 652.5 315.11C654.32 305.49 655.14 294.92 655.95 284.71C658.95 246.08 662.95 222.49 691.79 220.54C702.54 219.82 710.68 223.7 716.67 232.43C730.39 252.43 728.97 293.84 718.6 316.14C705.51 344.27 674.51 372.99 645.38 372.41C644.169 372.384 642.976 372.703 641.94 373.329C640.904 373.956 640.067 374.864 639.528 375.949C638.989 377.033 638.77 378.249 638.896 379.453C639.022 380.657 639.488 381.801 640.24 382.75C640.61 383.22 677.9 430.52 711.9 480.91C775.25 574.63 768.85 592.34 766.92 594.94V594.89ZM562.92 378.32C563.02 379.152 563.284 379.956 563.695 380.686C564.106 381.417 564.657 382.059 565.316 382.576C565.975 383.093 566.73 383.475 567.537 383.701C568.344 383.926 569.188 383.991 570.02 383.89C583.2 382.28 602.21 396.11 608.43 401.57C609.059 402.124 609.791 402.548 610.584 402.819C611.377 403.089 612.215 403.201 613.052 403.148C613.888 403.094 614.705 402.877 615.457 402.507C616.209 402.138 616.881 401.624 617.435 400.995C617.988 400.366 618.413 399.634 618.683 398.841C618.954 398.048 619.066 397.21 619.012 396.374C618.959 395.537 618.741 394.72 618.372 393.968C618.003 393.216 617.489 392.544 616.86 391.99C614.14 389.59 589.68 368.67 568.48 371.22C567.644 371.32 566.836 371.585 566.103 371.999C565.37 372.412 564.726 372.967 564.209 373.631C563.691 374.294 563.309 375.054 563.087 375.866C562.864 376.677 562.804 377.525 562.91 378.36L562.92 378.32ZM532.32 441.53C532.695 442.285 533.216 442.959 533.853 443.511C534.49 444.064 535.23 444.485 536.031 444.75C536.831 445.015 537.676 445.118 538.517 445.054C539.358 444.99 540.178 444.761 540.929 444.378C541.681 443.995 542.349 443.467 542.895 442.825C543.441 442.182 543.855 441.438 544.111 440.635C544.368 439.832 544.463 438.985 544.391 438.145C544.318 437.305 544.08 436.488 543.69 435.74C536.37 421.41 537 412 537 411.72C537.178 410.037 536.68 408.353 535.615 407.037C534.551 405.722 533.008 404.883 531.325 404.705C529.642 404.527 527.958 405.026 526.642 406.09C525.327 407.154 524.488 408.697 524.31 410.38C524.19 411.69 523.19 423.65 532.32 441.58V441.53ZM505.41 440.09C505.41 441.782 506.082 443.405 507.279 444.602C508.475 445.798 510.098 446.47 511.79 446.47C513.482 446.47 515.105 445.798 516.301 444.602C517.498 443.405 518.17 441.782 518.17 440.09V409.68C518.17 407.988 517.498 406.365 516.301 405.169C515.105 403.972 513.482 403.3 511.79 403.3C510.098 403.3 508.475 403.972 507.279 405.169C506.082 406.365 505.41 407.988 505.41 409.68V440.09ZM482.73 444.32C484.238 445.088 485.989 445.225 487.598 444.702C489.207 444.179 490.542 443.038 491.31 441.53C500.44 423.6 499.44 411.64 499.31 410.34C499.22 409.512 498.968 408.709 498.567 407.978C498.167 407.247 497.626 406.602 496.975 406.081C496.325 405.56 495.578 405.172 494.777 404.94C493.977 404.709 493.138 404.637 492.31 404.73C490.635 404.902 489.094 405.727 488.022 407.025C486.95 408.324 486.432 409.993 486.58 411.67C486.58 411.76 487.31 421.21 479.92 435.74C479.533 436.49 479.298 437.31 479.23 438.151C479.162 438.993 479.261 439.839 479.523 440.642C479.784 441.445 480.202 442.188 480.753 442.828C481.303 443.468 481.975 443.992 482.73 444.37V444.32ZM394.4 404.71C395.517 405.98 397.092 406.754 398.78 406.863C400.467 406.972 402.129 406.406 403.4 405.29C409.62 399.83 428.64 386 441.82 387.61C443.407 387.651 444.952 387.099 446.153 386.062C447.355 385.024 448.127 383.577 448.318 382.001C448.509 380.425 448.106 378.835 447.187 377.54C446.269 376.246 444.9 375.34 443.35 375C422.2 372.45 397.69 393.37 394.97 395.77C393.706 396.887 392.936 398.458 392.827 400.14C392.718 401.823 393.28 403.481 394.39 404.75L394.4 404.71ZM319.86 643.31L332.24 618.22C332.898 617.011 333.305 615.681 333.436 614.311C333.567 612.941 333.419 611.558 333.002 610.246C332.585 608.935 331.907 607.721 331.009 606.678C330.111 605.634 329.011 604.784 327.776 604.176C326.541 603.569 325.195 603.218 323.821 603.144C322.446 603.07 321.071 603.275 319.778 603.746C318.484 604.217 317.299 604.945 316.294 605.886C315.29 606.826 314.485 607.961 313.93 609.22L301.55 634.31C300.892 635.519 300.485 636.849 300.354 638.219C300.223 639.589 300.37 640.972 300.787 642.284C301.204 643.596 301.882 644.81 302.781 645.853C303.679 646.896 304.779 647.747 306.014 648.354C307.249 648.961 308.595 649.312 309.969 649.386C311.344 649.46 312.719 649.255 314.012 648.784C315.306 648.313 316.49 647.585 317.495 646.645C318.5 645.704 319.305 644.57 319.86 643.31ZM356.24 609.65C353.812 608.453 351.008 608.27 348.444 609.14C345.881 610.01 343.768 611.862 342.57 614.29L330.19 639.38C329.552 640.588 329.163 641.911 329.046 643.272C328.929 644.633 329.086 646.004 329.509 647.303C329.931 648.602 330.609 649.803 331.504 650.835C332.398 651.867 333.491 652.709 334.717 653.311C335.943 653.913 337.277 654.263 338.641 654.341C340.004 654.418 341.37 654.221 342.656 653.761C343.942 653.301 345.123 652.588 346.128 651.664C347.134 650.74 347.944 649.623 348.51 648.38L360.89 623.29C362.077 620.865 362.256 618.068 361.386 615.512C360.517 612.956 358.67 610.848 356.25 609.65H356.24ZM434.52 546C449.99 535.55 461.52 519.17 466.93 499.88C478.26 459.67 459.38 419.04 424.86 409.32C390.34 399.6 353 424.36 341.71 464.57C336.28 483.86 337.54 503.84 345.28 520.83C353.18 538.19 366.85 550.37 383.78 555.13C388.81 556.55 394.013 557.271 399.24 557.27C411.33 557.28 423.47 553.44 434.52 546ZM600.88 575.18C600.545 573.523 599.566 572.066 598.158 571.128C596.75 570.191 595.029 569.85 593.37 570.18C590.99 570.66 587.3 569.75 583.45 568.28C579.395 566.698 575.501 564.732 571.82 562.41C570.397 561.494 568.668 561.18 567.014 561.538C565.36 561.897 563.916 562.897 563 564.32C562.084 565.743 561.77 567.472 562.128 569.126C562.486 570.78 563.487 572.224 564.91 573.14C567.966 575.08 571.146 576.817 574.43 578.34C572.7 587.06 568.62 598.4 563 598.61C558.989 598.572 555.014 597.845 551.25 596.46C550.754 596.183 550.222 595.975 549.67 595.84H549.39C537.7 591.37 525 582.43 522 573C532.34 570.3 539.73 563.26 539.73 555C539.721 554.522 539.688 554.045 539.63 553.57C555 549.4 565.39 541.77 565.39 533C565.39 519.78 541.78 509.06 512.65 509.06C483.52 509.06 459.91 519.78 459.91 533C459.91 540.38 467.26 547 478.8 551.38C481.07 552.18 483.38 552.88 485.7 553.52C485.636 554.014 485.6 554.512 485.59 555.01C485.59 564.47 495.21 572.31 507.87 573.91C504.47 579.91 491.22 589.91 480.16 594.81C479.609 594.958 479.081 595.18 478.59 595.47C475.821 596.706 472.855 597.444 469.83 597.65C465.53 597.65 459.89 588 456.63 578.02C458.879 576.146 460.964 574.081 462.86 571.85C463.409 571.214 463.827 570.475 464.089 569.677C464.352 568.879 464.454 568.037 464.391 567.199C464.327 566.361 464.098 565.544 463.718 564.795C463.338 564.045 462.813 563.379 462.174 562.833C461.535 562.287 460.795 561.872 459.996 561.613C459.196 561.354 458.354 561.256 457.516 561.323C456.678 561.391 455.862 561.623 455.115 562.007C454.367 562.391 453.703 562.919 453.16 563.56C450.974 566.179 448.413 568.461 445.56 570.33L445.36 570.46C440.03 573.81 436.06 573.73 435.69 573.72C434.015 573.591 432.356 574.127 431.074 575.214C429.793 576.3 428.991 577.848 428.843 579.521C428.696 581.195 429.215 582.859 430.287 584.153C431.359 585.446 432.898 586.265 434.57 586.43C434.78 586.43 435.23 586.48 435.88 586.48C439.137 586.417 442.359 585.788 445.4 584.62C449.05 594.77 456.79 610.4 469.82 610.4H470C472.488 610.301 474.954 609.892 477.34 609.18C481.5 623.73 492.91 654.72 514.51 654.72H515.18C536.94 654.08 548.46 623.93 552.64 609.94C555.861 610.784 559.171 611.244 562.5 611.31H563.42C578.27 610.76 584.29 593.03 586.57 582.43C588.371 582.797 590.202 582.991 592.04 583.01C593.322 583.016 594.602 582.896 595.86 582.65C596.682 582.488 597.464 582.164 598.161 581.699C598.859 581.234 599.458 580.637 599.924 579.94C600.39 579.244 600.714 578.462 600.878 577.64C601.042 576.818 601.043 575.972 600.88 575.15V575.18ZM676 517.76C683.72 500.82 685 480.89 679.58 461.65C674.16 442.41 662.69 426.06 647.27 415.65C631.51 404.99 613.54 401.74 596.66 406.48C579.78 411.22 566.14 423.37 558.25 440.69C550.53 457.63 549.25 477.56 554.67 496.8C564.3 531.04 592.8 554.09 622.36 554.08C627.509 554.082 632.634 553.375 637.59 551.98C654.5 547.22 668.15 535.07 676 517.76ZM692.37 642.76L674.12 605.76C673.565 604.501 672.76 603.366 671.755 602.426C670.75 601.485 669.566 600.757 668.272 600.286C666.979 599.815 665.604 599.61 664.229 599.684C662.855 599.758 661.509 600.109 660.274 600.716C659.039 601.324 657.939 602.174 657.041 603.217C656.142 604.261 655.464 605.475 655.047 606.786C654.63 608.098 654.483 609.481 654.614 610.851C654.745 612.221 655.152 613.551 655.81 614.76L674.06 651.76C675.319 654.074 677.424 655.812 679.935 656.61C682.445 657.408 685.167 657.204 687.532 656.042C689.896 654.88 691.719 652.849 692.621 650.374C693.523 647.899 693.433 645.171 692.37 642.76ZM723.37 635.76L705.12 598.76C703.861 596.446 701.756 594.709 699.245 593.911C696.734 593.113 694.012 593.316 691.648 594.478C689.284 595.64 687.46 597.671 686.559 600.146C685.657 602.622 685.747 605.35 686.81 607.76L705.06 644.76C706.319 647.074 708.424 648.812 710.935 649.61C713.445 650.408 716.167 650.204 718.532 649.042C720.896 647.88 722.719 645.849 723.621 643.374C724.523 640.899 724.433 638.171 723.37 635.76ZM591 427.37C586.789 427.447 582.722 428.921 579.44 431.56C569.86 438.87 563.2 454.96 563.2 473.65C563.2 488.87 567.61 502.37 574.42 510.8C579.05 516.53 584.78 519.93 591 519.93C606.35 519.93 618.8 499.21 618.8 473.65C618.8 448.09 606.33 427.37 591 427.37Z" fill="white"/>
</g>
<defs>
<clipPath id="clip0_2_3405">
<rect width="1024" height="1024" fill="white"/>
</clipPath>
</defs>
</svg>
